Icons/SelectAll.svg

<svg viewBox="0 0 16 16" xmlns="http://www.w3.org/2000/svg">
 <g fill="#4d82b8"><path d="m14 3h-1v-1h-1v-1h2z"/><path d="m0 3h1v-1h1v-1h-2z"/><path d="m0 10h1v1h1v1h-2z"/><path d="m3 1v1h2v-1z"/><path d="m6 .99999995v1.00000005h2v-1.00000005z"/><path d="m9 1v1h2v-1z"/><path d="m3 11v1h2v-1z"/><path d="m6 11v1h2v-1z"/><path d="m9 11v1h2v-1z"/><path d="m1 4h-1v2h1z"/><path d="m.99999999 7h-.99999999v2h.99999999z"/><path d="m14 4h-1v2h1z"/><path d="m14 7h-1v2h1z"/><path d="m14 9.9999995h-1v1.0000005h-1v1h2z"/></g><path d="m3 4.5h8zm0 2h3zm0 2h5z" fill="none" stroke="#808080"/><path d="m8.8629995 5.3629331 6.6730515 6.3352769-3.008837.130287s1.291131 2.607572 1.291131 2.607572c.401224 1.160824-1.341646 1.617012-1.642564.746396 0 0-1.194037-2.608643-1.194037-2.608643l-2.1109005 2.305228z" fill="#fff" fill-rule="evenodd" stroke="#808080" stroke-linejoin="round" stroke-width=".725999"/></svg>

<?xml version="1.0" encoding="UTF-8" standalone="no"?>
<svg
   xmlns:dc="http://purl.org/dc/elements/1.1/"
   xmlns:cc="http://creativecommons.org/ns#"
   xmlns:rdf="http://www.w3.org/1999/02/22-rdf-syntax-ns#"
   xmlns:svg="http://www.w3.org/2000/svg"
   xmlns="http://www.w3.org/2000/svg"
   xmlns:sodipodi="http://sodipodi.sourceforge.net/DTD/sodipodi-0.dtd"
   xmlns:inkscape="http://www.inkscape.org/namespaces/inkscape"
   viewBox="0 0 16 16"
   version="1.1"
   id="svg4"
   sodipodi:docname="SelectAll.svg"
   inkscape:version="0.92.4 (5da689c313, 2019-01-14)"
   inkscape:export-filename="C:\Users\Kalama\Documents\GitHub\CodeLab-bb\Icons\SelectAll.32.png"
   inkscape:export-xdpi="192"
   inkscape:export-ydpi="192"><metadata
   id="metadata10">
  <rdf:RDF>
    <cc:Work
       rdf:about="">
      <dc:format>image/svg+xml</dc:format>
      <dc:type
         rdf:resource="http://purl.org/dc/dcmitype/StillImage" />
    </cc:Work>
  </rdf:RDF>
</metadata>
<defs
   id="defs8" />
<sodipodi:namedview
   pagecolor="#ffffff"
   bordercolor="#666666"
   borderopacity="1"
   objecttolerance="10"
   gridtolerance="10"
   guidetolerance="10"
   inkscape:pageopacity="0"
   inkscape:pageshadow="2"
   inkscape:window-width="1920"
   inkscape:window-height="1018"
   id="namedview6"
   showgrid="false"
   inkscape:zoom="14.75"
   inkscape:cx="-6.5648011"
   inkscape:cy="-3.1898708"
   inkscape:window-x="-8"
   inkscape:window-y="-8"
   inkscape:window-maximized="1"
   inkscape:current-layer="svg4" />


     /&amp;gt;
 <path
   style="fill:#4d82b8;fill-opacity:1;stroke:none;stroke-width:1px;stroke-linecap:butt;stroke-linejoin:miter;stroke-opacity:1"
   d="M 14,3 H 13 V 2 H 12 V 1 h 2 z"
   id="path834"
   inkscape:connector-curvature="0"
   sodipodi:nodetypes="ccccccc" />
<path
   style="fill:#4d82b8;fill-opacity:1;stroke:none;stroke-width:1px;stroke-linecap:butt;stroke-linejoin:miter;stroke-opacity:1"
   d="M 0,3 H 1 V 2 H 2 V 1 H 0 Z"
   id="path834-9"
   inkscape:connector-curvature="0"
   sodipodi:nodetypes="ccccccc" />
<path
   style="fill:#4d82b8;fill-opacity:1;stroke:none;stroke-width:1px;stroke-linecap:butt;stroke-linejoin:miter;stroke-opacity:1"
   d="m 0,10 h 1 v 1 h 1 v 1 H 0 Z"
   id="path834-3"
   inkscape:connector-curvature="0"
   sodipodi:nodetypes="ccccccc" />
<path
   style="fill:#4d82b8;fill-opacity:1;stroke:none;stroke-width:1px;stroke-linecap:butt;stroke-linejoin:miter;stroke-opacity:1"
   d="M 3,1 V 2 H 5 V 1 Z"
   id="path863"
   inkscape:connector-curvature="0"
   sodipodi:nodetypes="ccccc" />
<path
   style="fill:#4d82b8;fill-opacity:1;stroke:none;stroke-width:1px;stroke-linecap:butt;stroke-linejoin:miter;stroke-opacity:1"
   d="M 6,0.99999995 V 2 H 8 V 0.99999995 Z"
   id="path863-1"
   inkscape:connector-curvature="0"
   sodipodi:nodetypes="ccccc" />
<path
   style="fill:#4d82b8;fill-opacity:1;stroke:none;stroke-width:1px;stroke-linecap:butt;stroke-linejoin:miter;stroke-opacity:1"
   d="m 9,1 v 1 h 2 V 1 Z"
   id="path863-6"
   inkscape:connector-curvature="0"
   sodipodi:nodetypes="ccccc" />
<path
   style="fill:#4d82b8;fill-opacity:1;stroke:none;stroke-width:1px;stroke-linecap:butt;stroke-linejoin:miter;stroke-opacity:1"
   d="m 3,11 v 1 h 2 v -1 z"
   id="path863-0"
   inkscape:connector-curvature="0"
   sodipodi:nodetypes="ccccc" />
<path
   style="fill:#4d82b8;fill-opacity:1;stroke:none;stroke-width:1px;stroke-linecap:butt;stroke-linejoin:miter;stroke-opacity:1"
   d="m 6,11 v 1 h 2 v -1 z"
   id="path863-8"
   inkscape:connector-curvature="0"
   sodipodi:nodetypes="ccccc" />
<path
   style="fill:#4d82b8;fill-opacity:1;stroke:none;stroke-width:1px;stroke-linecap:butt;stroke-linejoin:miter;stroke-opacity:1"
   d="m 9,11 v 1 h 2 v -1 z"
   id="path863-5"
   inkscape:connector-curvature="0"
   sodipodi:nodetypes="ccccc" />
<path
   style="fill:#4d82b8;fill-opacity:1;stroke:none;stroke-width:1px;stroke-linecap:butt;stroke-linejoin:miter;stroke-opacity:1"
   d="M 1,4 H 0 v 2 h 1 z"
   id="path863-69"
   inkscape:connector-curvature="0"
   sodipodi:nodetypes="ccccc" />
<path
   style="fill:#4d82b8;fill-opacity:1;stroke:none;stroke-width:1px;stroke-linecap:butt;stroke-linejoin:miter;stroke-opacity:1"
   d="M 0.99999999,7 H 0 v 2 h 0.99999999 z"
   id="path863-69-1"
   inkscape:connector-curvature="0"
   sodipodi:nodetypes="ccccc" />
<path
   style="fill:#4d82b8;fill-opacity:1;stroke:none;stroke-width:1px;stroke-linecap:butt;stroke-linejoin:miter;stroke-opacity:1"
   d="m 14,4 h -1 v 2 h 1 z"
   id="path863-69-8"
   inkscape:connector-curvature="0"
   sodipodi:nodetypes="ccccc" />
<path
   style="fill:#4d82b8;fill-opacity:1;stroke:none;stroke-width:1px;stroke-linecap:butt;stroke-linejoin:miter;stroke-opacity:1"
   d="m 14,7 h -1 v 2 h 1 z"
   id="path863-69-89"
   inkscape:connector-curvature="0"
   sodipodi:nodetypes="ccccc" />
<path
   style="fill:#4d82b8;fill-opacity:1;stroke:none;stroke-width:1px;stroke-linecap:butt;stroke-linejoin:miter;stroke-opacity:1"
   d="M 14,9.9999995 H 13 V 11 h -1 v 1 h 2 z"
   id="path834-4"
   inkscape:connector-curvature="0"
   sodipodi:nodetypes="ccccccc" />
<path
   style="fill:none;stroke:#808080;stroke-width:1px;stroke-linecap:butt;stroke-linejoin:miter;stroke-opacity:1"
   d="M 3 4.5 L 11 4.5 L 3 4.5 z M 3 6.5 L 6 6.5 L 3 6.5 z M 3 8.5 L 8 8.5 L 3 8.5 z "
   id="path946" />
<path
   d="m 8.8629995,5.3629331 6.6730515,6.3352769 -3.008837,0.130287 c 0,0 1.291131,2.607572 1.291131,2.607572 0.401224,1.160824 -1.341646,1.617012 -1.642564,0.746396 0,0 -1.194037,-2.608643 -1.194037,-2.608643 L 8.8708435,14.87905 Z"
   id="path2"
   inkscape:connector-curvature="0"
   style="fill:#ffffff;fill-rule:evenodd;stroke:#808080;stroke-width:0.72599918;stroke-linejoin:round;stroke-miterlimit:4;stroke-dasharray:none" />
</svg>
